images/indikatorenset/4337.svg

<?xml version="1.0" standalone="no"?><!DOCTYPE svg PUBLIC "-//W3C//DTD SVG 1.1//EN" "http://www.w3.org/Graphics/SVG/1.1/DTD/svg11.dtd"><svg xmlns:xlink="http://www.w3.org/1999/xlink" version="1.1" class="highcharts-root" style="font-family:arial;font-size:9pt;" xmlns="http://www.w3.org/2000/svg" width="485" height="415"><desc>Created with Highstock 5.0.14</desc><defs><clipPath id="highcharts-shxcdl5-7"><rect x="0" y="0" width="432" height="254" fill="none"></rect></clipPath><clipPath id="highcharts-shxcdl5-8"><rect x="0" y="0" width="432" height="254" fill="none"></rect></clipPath></defs><rect fill="#fbfbfb" class="highcharts-background" x="0" y="0" width="485" height="415" rx="0" ry="0"></rect><rect fill="none" class="highcharts-plot-background" x="43" y="90" width="432" height="254"></rect><g class="highcharts-label" style="cursor:pointer;" transform="translate(10,451)"><text x="0" y="0"><tspan>&gt; Indikator-Details</tspan></text></g><g class="highcharts-pane-group"></g><g class="highcharts-grid highcharts-xaxis-grid "><path fill="none" class="highcharts-grid-line" d="M 75.5 90 L 75.5 344" opacity="1"></path><path fill="none" class="highcharts-grid-line" d="M 108.5 90 L 108.5 344" opacity="1"></path><path fill="none" class="highcharts-grid-line" d="M 142.5 90 L 142.5 344" opacity="1"></path><path fill="none" class="highcharts-grid-line" d="M 175.5 90 L 175.5 344" opacity="1"></path><path fill="none" class="highcharts-grid-line" d="M 208.5 90 L 208.5 344" opacity="1"></path><path fill="none" class="highcharts-grid-line" d="M 241.5 90 L 241.5 344" opacity="1"></path><path fill="none" class="highcharts-grid-line" d="M 275.5 90 L 275.5 344" opacity="1"></path><path fill="none" class="highcharts-grid-line" d="M 308.5 90 L 308.5 344" opacity="1"></path><path fill="none" class="highcharts-grid-line" d="M 341.5 90 L 341.5 344" opacity="1"></path><path fill="none" class="highcharts-grid-line" d="M 374.5 90 L 374.5 344" opacity="1"></path><path fill="none" class="highcharts-grid-line" d="M 408.5 90 L 408.5 344" opacity="1"></path><path fill="none" class="highcharts-grid-line" d="M 441.5 90 L 441.5 344" opacity="1"></path><path fill="none" class="highcharts-grid-line" d="M 474.5 90 L 474.5 344" opacity="1"></path><path fill="none" class="highcharts-grid-line" d="M 42.5 90 L 42.5 344" opacity="1"></path></g><g class="highcharts-grid highcharts-yaxis-grid "><path fill="none" stroke="#e6e6e6" stroke-width="1" class="highcharts-grid-line" d="M 43 344.5 L 475 344.5" opacity="1"></path><path fill="none" stroke="#e6e6e6" stroke-width="1" class="highcharts-grid-line" d="M 43 281.5 L 475 281.5" opacity="1"></path><path fill="none" stroke="#e6e6e6" stroke-width="1" class="highcharts-grid-line" d="M 43 217.5 L 475 217.5" opacity="1"></path><path fill="none" stroke="#e6e6e6" stroke-width="1" class="highcharts-grid-line" d="M 43 154.5 L 475 154.5" opacity="1"></path><path fill="none" stroke="#e6e6e6" stroke-width="1" class="highcharts-grid-line" d="M 43 89.5 L 475 89.5" opacity="1"></path></g><g class="highcharts-grid highcharts-yaxis-grid "></g><rect fill="none" class="highcharts-plot-border" x="43" y="90" width="432" height="254"></rect><g class="highcharts-axis highcharts-xaxis "><path fill="none" class="highcharts-axis-line" stroke="#ccd6eb" stroke-width="1" d="M 43 344.5 L 475 344.5"></path></g><g class="highcharts-axis highcharts-yaxis "><path fill="none" class="highcharts-axis-line" d="M 43 90 L 43 344"></path></g><g class="highcharts-axis highcharts-yaxis "><path fill="none" class="highcharts-axis-line" d="M 475 90 L 475 344"></path></g><g class="highcharts-series-group"><g class="highcharts-series highcharts-series-0 highcharts-column-series highcharts-color-undefined " transform="translate(43,90) scale(1 1)" clip-path="url(#highcharts-shxcdl5-8)"><rect x="8" y="59" width="8" height="196" fill="#FF8028" class="highcharts-point"></rect><rect x="41" y="57" width="8" height="198" fill="#FF8028" class="highcharts-point"></rect><rect x="74" y="57" width="8" height="198" fill="#FF8028" class="highcharts-point"></rect><rect x="107" y="58" width="8" height="197" fill="#FF8028" class="highcharts-point"></rect><rect x="141" y="59" width="8" height="196" fill="#FF8028" class="highcharts-point"></rect><rect x="174" y="56" width="8" height="199" fill="#FF8028" class="highcharts-point"></rect><rect x="207" y="51" width="8" height="204" fill="#FF8028" class="highcharts-point"></rect><rect x="240" y="58" width="8" height="197" fill="#FF8028" class="highcharts-point"></rect><rect x="273" y="69" width="8" height="186" fill="#FF8028" class="highcharts-point"></rect><rect x="307" y="62" width="8" height="193" fill="#FF8028" class="highcharts-point"></rect><rect x="340" y="70" width="8" height="185" fill="#FF8028" class="highcharts-point"></rect><rect x="373" y="69" width="8" height="186" fill="#FF8028" class="highcharts-point"></rect><rect x="406" y="76" width="8" height="179" fill="#FF8028" class="highcharts-point"></rect></g><g class="highcharts-markers highcharts-series-0 highcharts-column-series highcharts-color-undefined " transform="translate(43,90) scale(1 1)" clip-path="none"></g><g class="highcharts-series highcharts-series-1 highcharts-column-series highcharts-color-undefined " transform="translate(43,90) scale(1 1)" clip-path="url(#highcharts-shxcdl5-8)"><rect x="18" y="35" width="8" height="220" fill="#B375AB" class="highcharts-point"></rect><rect x="51" y="33" width="8" height="222" fill="#B375AB" class="highcharts-point"></rect><rect x="84" y="36" width="8" height="219" fill="#B375AB" class="highcharts-point"></rect><rect x="117" y="32" width="8" height="223" fill="#B375AB" class="highcharts-point"></rect><rect x="151" y="27" width="8" height="228" fill="#B375AB" class="highcharts-point"></rect><rect x="184" y="29" width="8" height="226" fill="#B375AB" class="highcharts-point"></rect><rect x="217" y="32" width="8" height="223" fill="#B375AB" class="highcharts-point"></rect><rect x="250" y="29" width="8" height="226" fill="#B375AB" class="highcharts-point"></rect><rect x="283" y="32" width="8" height="223" fill="#B375AB" class="highcharts-point"></rect><rect x="317" y="28" width="8" height="227" fill="#B375AB" class="highcharts-point"></rect><rect x="350" y="37" width="8" height="218" fill="#B375AB" class="highcharts-point"></rect><rect x="383" y="41" width="8" height="214" fill="#B375AB" class="highcharts-point"></rect><rect x="416" y="51" width="8" height="204" fill="#B375AB" class="highcharts-point"></rect></g><g class="highcharts-markers highcharts-series-1 highcharts-column-series highcharts-color-undefined " transform="translate(43,90) scale(1 1)" clip-path="none"></g></g><text x="10" text-anchor="start" class="highcharts-title" style="color:#000000;font-size:1.1em;font-weight:bold;fill:#000000;" y="20"><tspan>Siedlungsabfälle</tspan></text><text x="10" text-anchor="start" class="highcharts-subtitle" style="color:#000000;font-size:0.9em;fill:#000000;" y="38"><tspan>Kilogramm pro Einwohner</tspan></text><g class="highcharts-legend" transform="translate(10,40)"><rect fill="none" class="highcharts-legend-box" rx="0" ry="0" x="0" y="0" width="323" height="38" visibility="visible"></rect><g><g><g class="highcharts-legend-item highcharts-column-series highcharts-color-undefined highcharts-series-0" transform="translate(12,7)"><text x="21" style="color:#333333;font-size:1em;font-weight:normal;cursor:pointer;fill:#333333;" text-anchor="start" y="15"><tspan>Kanton Basel-Stadt</tspan></text><rect x="2" y="4" width="12" height="12" fill="#FF8028" class="highcharts-point"></rect></g><g class="highcharts-legend-item highcharts-column-series highcharts-color-undefined highcharts-series-1" transform="translate(156.328125,7)"><text x="21" y="15" style="color:#333333;font-size:1em;font-weight:normal;cursor:pointer;fill:#333333;" text-anchor="start"><tspan>Kanton Basel-Landschaft</tspan></text><rect x="2" y="4" width="12" height="12" fill="#B375AB" class="highcharts-point"></rect></g></g></g></g><g class="highcharts-axis-labels highcharts-xaxis-labels "><text x="59.61538461538461" style="color:#000000;cursor:default;font-size:0.9em;fill:#000000;" text-anchor="middle" transform="translate(0,0)" y="363" opacity="1">2003</text><text x="92.84615384615385" style="color:#000000;cursor:default;font-size:0.9em;fill:#000000;" text-anchor="middle" transform="translate(0,0)" y="363" opacity="1">2004</text><text x="126.07692307692307" style="color:#000000;cursor:default;font-size:0.9em;fill:#000000;" text-anchor="middle" transform="translate(0,0)" y="363" opacity="1">2005</text><text x="159.30769230769232" style="color:#000000;cursor:default;font-size:0.9em;fill:#000000;" text-anchor="middle" transform="translate(0,0)" y="363" opacity="1">2006</text><text x="192.53846153846155" style="color:#000000;cursor:default;font-size:0.9em;fill:#000000;" text-anchor="middle" transform="translate(0,0)" y="363" opacity="1">2007</text><text x="225.76923076923077" style="color:#000000;cursor:default;font-size:0.9em;fill:#000000;" text-anchor="middle" transform="translate(0,0)" y="363" opacity="1">2008</text><text x="259" style="color:#000000;cursor:default;font-size:0.9em;fill:#000000;" text-anchor="middle" transform="translate(0,0)" y="363" opacity="1">2009</text><text x="292.2307692307692" style="color:#000000;cursor:default;font-size:0.9em;fill:#000000;" text-anchor="middle" transform="translate(0,0)" y="363" opacity="1">2010</text><text x="325.4615384615385" style="color:#000000;cursor:default;font-size:0.9em;fill:#000000;" text-anchor="middle" transform="translate(0,0)" y="363" opacity="1">2011</text><text x="358.69230769230774" style="color:#000000;cursor:default;font-size:0.9em;fill:#000000;" text-anchor="middle" transform="translate(0,0)" y="363" opacity="1">2012</text><text x="391.92307692307696" style="color:#000000;cursor:default;font-size:0.9em;fill:#000000;" text-anchor="middle" transform="translate(0,0)" y="363" opacity="1">2013</text><text x="425.1538461538462" style="color:#000000;cursor:default;font-size:0.9em;fill:#000000;" text-anchor="middle" transform="translate(0,0)" y="363" opacity="1">2014</text><text x="458.3846153846154" style="color:#000000;cursor:default;font-size:0.9em;fill:#000000;" text-anchor="middle" transform="translate(0,0)" y="363" opacity="1">2015</text></g><g class="highcharts-axis-labels highcharts-yaxis-labels "><text x="28" style="color:#000000;cursor:default;font-size:0.9em;fill:#000000;" text-anchor="end" transform="translate(0,0)" y="349" opacity="1"><tspan>0</tspan></text><text x="28" style="color:#000000;cursor:default;font-size:0.9em;fill:#000000;" text-anchor="end" transform="translate(0,0)" y="285" opacity="1"><tspan>100</tspan></text><text x="28" style="color:#000000;cursor:default;font-size:0.9em;fill:#000000;" text-anchor="end" transform="translate(0,0)" y="222" opacity="1"><tspan>200</tspan></text><text x="28" style="color:#000000;cursor:default;font-size:0.9em;fill:#000000;" text-anchor="end" transform="translate(0,0)" y="158" opacity="1"><tspan>300</tspan></text><text x="28" style="color:#000000;cursor:default;font-size:0.9em;fill:#000000;" text-anchor="end" transform="translate(0,0)" y="95" opacity="1"><tspan>400</tspan></text></g><g class="highcharts-axis-labels highcharts-yaxis-labels "></g><text x="10" class="highcharts-credits" text-anchor="start" style="cursor:default;color:#000000;font-size:0.8em;fill:#000000;" y="400"><tspan>Quelle: Amt für Umwelt und Energie Basel-Stadt; Amt für Umweltschutz und Energie Basel-Landschaft</tspan></text></svg>

<svg class="highcharts-root" xmlns="http://www.w3.org/2000/svg" width="485" height="415" font-family="arial" font-size="12">
    <defs>
        <clipPath id="a">
            <path fill="none" d="M0 0h432v254H0z"/>
        </clipPath>
    </defs>
    <rect fill="#fbfbfb" class="highcharts-background" width="485" height="415" rx="0" ry="0"/>
    <path fill="none" class="highcharts-plot-background" d="M43 90h432v254H43z"/>
    <text transform="translate(10 451)" class="highcharts-label" cursor="pointer">
        <tspan>&gt; Indikator-Details</tspan>
    </text>
    <g class="highcharts-grid highcharts-xaxis-grid">
        <path fill="none" class="highcharts-grid-line" d="M75.5 90v254m33-254v254m34-254v254m33-254v254m33-254v254m33-254v254m34-254v254m33-254v254m33-254v254m33-254v254m34-254v254m33-254v254m33-254v254M42.5 90v254"/>
    </g>
    <g class="highcharts-grid highcharts-yaxis-grid">
        <path fill="none" stroke="#e6e6e6" class="highcharts-grid-line" d="M43 344.5h432m-432-63h432m-432-64h432m-432-63h432m-432-65h432"/>
    </g>
    <path fill="none" class="highcharts-plot-border" d="M43 90h432v254H43z"/>
    <g class="highcharts-axis highcharts-xaxis">
        <path fill="none" class="highcharts-axis-line" stroke="#ccd6eb" d="M43 344.5h432"/>
    </g>
    <g class="highcharts-axis highcharts-yaxis">
        <path fill="none" class="highcharts-axis-line" d="M43 90v254"/>
    </g>
    <g class="highcharts-axis highcharts-yaxis">
        <path fill="none" class="highcharts-axis-line" d="M475 90v254"/>
    </g>
    <g class="highcharts-series-group">
        <g class="highcharts-series highcharts-series-0 highcharts-column-series highcharts-color-undefined" transform="translate(43 90)" clip-path="url(#a)">
            <path fill="#FF8028" class="highcharts-point" d="M8 59h8v196H8zm33-2h8v198h-8zm33 0h8v198h-8zm33 1h8v197h-8zm34 1h8v196h-8zm33-3h8v199h-8zm33-5h8v204h-8zm33 7h8v197h-8zm33 11h8v186h-8zm34-7h8v193h-8zm33 8h8v185h-8zm33-1h8v186h-8zm33 7h8v179h-8z"/>
        </g>
        <g class="highcharts-series highcharts-series-1 highcharts-column-series highcharts-color-undefined" transform="translate(43 90)" clip-path="url(#a)">
            <path fill="#B375AB" class="highcharts-point" d="M18 35h8v220h-8zm33-2h8v222h-8zm33 3h8v219h-8zm33-4h8v223h-8zm34-5h8v228h-8zm33 2h8v226h-8zm33 3h8v223h-8zm33-3h8v226h-8zm33 3h8v223h-8zm34-4h8v227h-8zm33 9h8v218h-8zm33 4h8v214h-8zm33 10h8v204h-8z"/>
        </g>
    </g>
    <text x="10" class="highcharts-title" y="20" color="#000" font-size="1.1em" font-weight="700">
        <tspan>Siedlungsabfälle</tspan>
    </text>
    <text x="10" class="highcharts-subtitle" y="38" color="#000" font-size=".9em">
        <tspan>Kilogramm pro Einwohner</tspan>
    </text>
    <g class="highcharts-legend" transform="translate(10 40)">
        <rect fill="none" class="highcharts-legend-box" rx="0" ry="0" width="323" height="38"/>
        <g class="highcharts-legend-item highcharts-column-series highcharts-color-undefined highcharts-series-0">
            <text x="21" y="15" color="#333" font-size="1em" font-weight="400" cursor="pointer" fill="#333" transform="translate(12 7)">
                <tspan>Kanton Basel-Stadt</tspan>
            </text>
            <path fill="#FF8028" class="highcharts-point" d="M14 11h12v12H14z"/>
        </g>
        <g class="highcharts-legend-item highcharts-column-series highcharts-color-undefined highcharts-series-1">
            <text x="21" y="15" color="#333" font-size="1em" font-weight="400" cursor="pointer" fill="#333" transform="translate(156.328 7)">
                <tspan>Kanton Basel-Landschaft</tspan>
            </text>
            <path fill="#B375AB" class="highcharts-point" d="M158.328 11h12v12h-12z"/>
        </g>
    </g>
    <g class="highcharts-axis-labels highcharts-xaxis-labels" text-anchor="middle" color="#000" cursor="default" font-size=".9em">
        <text x="59.615" y="363">
            2003
        </text>
        <text x="92.846" y="363">
            2004
        </text>
        <text x="126.077" y="363">
            2005
        </text>
        <text x="159.308" y="363">
            2006
        </text>
        <text x="192.538" y="363">
            2007
        </text>
        <text x="225.769" y="363">
            2008
        </text>
        <text x="259" y="363">
            2009
        </text>
        <text x="292.231" y="363">
            2010
        </text>
        <text x="325.462" y="363">
            2011
        </text>
        <text x="358.692" y="363">
            2012
        </text>
        <text x="391.923" y="363">
            2013
        </text>
        <text x="425.154" y="363">
            2014
        </text>
        <text x="458.385" y="363">
            2015
        </text>
    </g>
    <g class="highcharts-axis-labels highcharts-yaxis-labels" text-anchor="end" color="#000" cursor="default" font-size=".9em">
        <text x="28" y="349">
            <tspan>0</tspan>
        </text>
        <text x="28" y="285">
            <tspan>100</tspan>
        </text>
        <text x="28" y="222">
            <tspan>200</tspan>
        </text>
        <text x="28" y="158">
            <tspan>300</tspan>
        </text>
        <text x="28" y="95">
            <tspan>400</tspan>
        </text>
    </g>
    <text x="10" class="highcharts-credits" y="400" cursor="default" color="#000" font-size=".8em">
        <tspan>Quelle: Amt für Umwelt und Energie Basel-Stadt; Amt für Umweltschutz und Energie Basel-Landschaft</tspan>
    </text>
</svg>
